src/icons/car.svg

<svg width="56" height="56" viewBox="0 0 56 56" fill="none" xmlns="http://www.w3.org/2000/svg">
<path d="M53.8581 22.4358L52.6376 21.1435L48.3538 9.5965C47.6239 7.64607 45.7573 6.35376 43.6752 6.3418H13.0786C10.9966 6.3418 9.12991 7.64607 8.4 9.5965L4.17607 20.9999L2.41709 22.6273C0.88547 23.9315 0 25.8461 0 27.8563V44.6803C0.0119658 47.4324 2.24957 49.658 5.00171 49.658H8.16068C10.9128 49.658 13.1504 47.4324 13.1624 44.6803V42.2392H42.8376V44.6803C42.8496 47.4324 45.0872 49.658 47.8393 49.658H50.9983C53.7504 49.658 55.988 47.4324 56 44.6803V27.4136C55.988 25.535 55.2222 23.7401 53.8581 22.4358ZM10.6496 10.4102C11.0325 9.39308 12.0017 8.73496 13.0786 8.73496H43.6872C44.7641 8.73496 45.7333 9.40504 46.1162 10.4102L49.8496 20.4615H47.0615C46.4034 15.9743 42.2273 12.8751 37.7402 13.5452C34.1624 14.0717 31.3504 16.8837 30.8239 20.4615H6.91624L10.6496 10.4102ZM44.6205 20.4615H33.241C33.8991 17.3144 36.9863 15.3042 40.1333 15.9623C42.3829 16.4409 44.1419 18.1999 44.6205 20.4615ZM10.7692 44.6803C10.7573 46.1162 9.59658 47.2649 8.16068 47.2649H5.00171C3.56581 47.2649 2.40513 46.1162 2.39316 44.6803V41.5452C3.11111 42.0119 4.05641 42.2392 5.00171 42.2392H10.7692V44.6803ZM53.6068 44.6803C53.5949 46.1162 52.4342 47.2649 50.9983 47.2649H47.8393C46.4034 47.2649 45.2427 46.1042 45.2308 44.6803V42.2392H50.9983C51.9436 42.2392 52.8889 42.0119 53.6068 41.5452V44.6803ZM50.9983 39.8461H5.00171C3.57778 39.858 2.40513 38.7213 2.39316 37.2854V27.8563C2.39316 26.5401 2.97949 25.2837 3.98462 24.4341C3.99658 24.4221 4.02051 24.3982 4.03248 24.3862L5.65983 22.8546H50.9744L52.1231 24.0871C52.135 24.111 52.1709 24.123 52.1829 24.1469C53.0803 24.9965 53.5949 26.1811 53.5949 27.4136V37.2854H53.6068C53.5949 38.7093 52.4222 39.858 50.9983 39.8461Z" fill=""/>
<path d="M15.7948 27.6411H6.82048C6.16236 27.6411 5.6239 28.1796 5.6239 28.8377V35.0599C5.6239 35.718 6.16236 36.2565 6.82048 36.2565H15.7948C16.453 36.2565 16.9914 35.718 16.9914 35.0599V28.8377C16.9914 28.1796 16.453 27.6411 15.7948 27.6411ZM14.5983 33.8633H8.01706V30.0343H14.5983V33.8633Z" fill=""/>
<path d="M49.1795 27.6411H40.2051C39.547 27.6411 39.0085 28.1796 39.0085 28.8377V35.0599C39.0085 35.718 39.547 36.2565 40.2051 36.2565H49.1795C49.8376 36.2565 50.3761 35.718 50.3761 35.0599V28.8377C50.3761 28.1796 49.8376 27.6411 49.1795 27.6411ZM47.9829 33.8633H41.4017V30.0343H47.9829V33.8633Z" fill=""/>
<path d="M33.7796 32.6665H22.2206C21.5624 32.6665 21.024 33.205 21.024 33.8631C21.024 34.5212 21.5624 35.0597 22.2206 35.0597H33.7796C34.4377 35.0597 34.9761 34.5212 34.9761 33.8631C34.9761 33.205 34.4377 32.6665 33.7796 32.6665Z" fill=""/>
<path d="M33.7796 28.957H22.2206C21.5624 28.957 21.024 29.4955 21.024 30.1536C21.024 30.8117 21.5624 31.3502 22.2206 31.3502H33.7796C34.4377 31.3502 34.9761 30.8117 34.9761 30.1536C34.9761 29.4955 34.4377 28.957 33.7796 28.957Z" fill=""/>
</svg>

<svg width="56" height="56" xmlns="http://www.w3.org/2000/svg"><path d="m53.858 22.436-1.22-1.293-4.284-11.546a5.024 5.024 0 0 0-4.679-3.255H13.08A5.007 5.007 0 0 0 8.4 9.597L4.176 21l-1.759 1.627A6.875 6.875 0 0 0 0 27.857V44.68a5.002 5.002 0 0 0 5.002 4.978H8.16a5.002 5.002 0 0 0 5.001-4.978v-2.44h29.676v2.44a5.002 5.002 0 0 0 5.001 4.978H51A5.002 5.002 0 0 0 56 44.68V27.414a6.939 6.939 0 0 0-2.142-4.978ZM10.65 10.41a2.588 2.588 0 0 1 2.429-1.675h30.608c1.077 0 2.046.67 2.43 1.675l3.733 10.052h-2.788a8.196 8.196 0 0 0-9.322-6.917 8.2 8.2 0 0 0-6.916 6.917H6.916L10.65 10.41Zm33.97 10.052H33.242a5.82 5.82 0 0 1 6.892-4.5 5.827 5.827 0 0 1 4.487 4.5ZM10.77 44.68a2.602 2.602 0 0 1-2.61 2.585H5.003a2.602 2.602 0 0 1-2.609-2.585v-3.135c.718.467 1.663.694 2.609.694h5.767v2.441Zm42.837 0a2.602 2.602 0 0 1-2.609 2.585H47.84a2.61 2.61 0 0 1-2.608-2.585v-2.44h5.767c.946 0 1.89-.228 2.609-.695v3.135Zm-2.609-4.834H5.002a2.582 2.582 0 0 1-2.609-2.56v-9.43c0-1.316.586-2.572 1.592-3.422l.047-.048 1.628-1.531h45.314l1.15 1.232c.011.024.047.036.059.06a4.51 4.51 0 0 1 1.412 3.267v9.871h.012a2.59 2.59 0 0 1-2.609 2.561Z"/><path d="M15.795 27.641H6.82a1.2 1.2 0 0 0-1.196 1.197v6.222a1.2 1.2 0 0 0 1.196 1.197h8.975a1.2 1.2 0 0 0 1.196-1.197v-6.222a1.2 1.2 0 0 0-1.196-1.197Zm-1.197 6.222h-6.58v-3.829h6.58v3.83ZM49.18 27.641h-8.975a1.2 1.2 0 0 0-1.197 1.197v6.222a1.2 1.2 0 0 0 1.197 1.197h8.974a1.2 1.2 0 0 0 1.197-1.197v-6.222a1.2 1.2 0 0 0-1.197-1.197Zm-1.197 6.222h-6.581v-3.829h6.58v3.83ZM33.78 32.666H22.22a1.2 1.2 0 0 0-1.196 1.197 1.2 1.2 0 0 0 1.197 1.197H33.78a1.2 1.2 0 0 0 1.196-1.197 1.2 1.2 0 0 0-1.196-1.197ZM33.78 28.957H22.22a1.2 1.2 0 0 0-1.196 1.197 1.2 1.2 0 0 0 1.197 1.196H33.78a1.2 1.2 0 0 0 1.196-1.196 1.2 1.2 0 0 0-1.196-1.197Z"/></svg>
